icons/deployhq.svg

<?xml version="1.0" encoding="UTF-8"?>
<svg width="512px" height="144px" viewBox="0 0 512 144" version="1.1" xmlns="http://www.w3.org/2000/svg" xmlns:xlink="http://www.w3.org/1999/xlink" preserveAspectRatio="xMidYMid">
    <g>
        <path d="M-1.42108547e-14,71.9670151 C-1.42108547e-14,65.76719 0.852942401,60.1750864 2.55349631,55.1960352 C4.25405023,50.211653 6.48769314,46.0215734 9.25975595,42.6151347 C11.8550718,39.3536548 15.1105649,36.6776831 18.8127108,34.7627337 C22.4110616,32.9342385 26.0573904,32.0173254 29.7516971,32.0173254 C33.7392029,32.0173254 36.9910458,32.7103411 39.5232185,34.0750489 C42.0500604,35.4504186 44.4276373,37.3055683 46.6666111,39.6404981 L45.7923452,28.6641956 L45.7923452,3.96618217 L70.8741827,3.96618217 L70.8741827,110.082879 L50.4568739,110.082879 L48.708342,103.072758 L48.1219441,103.072758 C45.6238362,105.693554 42.6889954,107.859961 39.4485861,109.475157 C36.1914123,111.101079 32.9608929,111.916705 29.7463662,111.916705 C25.1831244,111.916705 21.0730082,110.999792 17.4320103,109.171296 C13.7368015,107.303066 10.5363063,104.586664 8.09229103,101.244263 C5.51747116,97.7845154 3.5237183,93.5944359 2.11636333,88.6633626 C0.703677481,83.7322894 -1.42108547e-14,78.1668402 -1.42108547e-14,71.9670151 L-1.42108547e-14,71.9670151 Z M25.6682354,71.6631544 C25.6682354,78.5719878 26.6171338,83.4550831 28.5095998,86.3017784 C30.4073966,89.1431427 33.0568489,90.5664904 36.4579568,90.5664904 C38.4037316,90.5664904 40.1042855,90.1879972 41.5649494,89.4256799 C43.0202824,88.6633626 44.4329682,87.2133605 45.7923452,85.0810045 L45.7923452,57.0245304 C44.4536637,55.6740479 42.7990522,54.6790822 40.9785515,54.1298571 C39.3226265,53.6356731 37.6049447,53.379008 35.8768898,53.3675399 C33.248761,53.3675399 30.8925076,54.7375786 28.8027987,57.482987 C26.7130898,60.2283953 25.6682354,64.9515639 25.6682354,71.6631544 L25.6682354,71.6631544 Z M73.6835617,71.9670151 C73.6835617,65.76719 74.6804381,60.2017409 76.674191,55.2706676 C78.6679439,50.3395944 81.2907417,46.1495148 84.5479155,42.6897672 C87.6895405,39.3163979 91.48607,36.6191025 95.7054683,34.7627337 C99.7935077,32.9521786 104.215148,32.0173253 108.686185,32.0173253 C114.033068,32.0173253 118.697597,32.9822165 122.685103,34.9173296 C126.55821,36.7582735 129.952108,39.4715676 132.600558,42.844363 C135.228687,46.2028237 137.195785,50.1103661 138.507184,54.5829828 C139.818583,59.0609304 140.479614,63.8374079 140.479614,68.917746 C140.479614,71.2580067 140.357003,73.3423847 140.111782,75.17088 C139.871892,76.9993753 139.647995,78.369414 139.456083,79.2863271 L97.8911332,79.2863271 C99.063929,84.1640915 101.148307,87.5172213 104.165591,89.3510474 C107.177544,91.1795427 110.722585,92.0911249 114.811378,92.0911249 C117.33822,92.0911249 119.790429,91.7126317 122.173337,90.9503144 C124.795101,90.0797805 127.31522,88.9287471 129.689892,87.5172213 L137.851485,103.072758 C133.863014,106.021331 129.398599,108.264357 124.652201,109.704385 C119.843738,111.175711 115.392445,111.916705 111.308983,111.916705 C106.22825,111.965475 101.183399,111.06138 96.4358003,109.25126 C91.9631244,107.535031 87.9096733,104.881202 84.5479155,101.46816 C81.1947857,98.0670526 78.5453334,93.8716422 76.6048894,88.88726 C74.6591146,83.9082087 73.6835617,78.2681271 73.6835617,71.9670151 L73.6835617,71.9670151 Z M119.182708,63.4269293 C119.182708,60.1750864 118.47903,57.4296781 117.071675,55.1960352 C115.65899,52.9570613 113.057515,51.8375744 109.267253,51.8375744 C106.58126,51.791616 103.9683,52.7130578 101.905293,54.4337179 C99.8155845,56.1609262 98.3815751,59.1568864 97.6032652,63.4269293 L119.182708,63.4269293 L119.182708,63.4269293 Z M168.951897,115.882887 L168.951897,136.918579 L143.87006,136.918579 L143.87006,33.8511516 L164.287368,33.8511516 L166.0359,40.8612719 L166.622298,40.8612719 C169.313955,38.2400144 172.416724,36.0772598 175.807422,34.458873 C179.12593,32.8510295 182.765709,32.0162682 186.453209,32.0173244 C190.728583,32.0173244 194.620132,32.9342385 198.117196,34.7627337 C201.665236,36.6322178 204.735171,39.293558 207.089084,42.5405023 C209.567948,45.898963 211.460414,49.9611012 212.777144,54.7375786 C214.088543,59.5140561 214.749573,64.850277 214.749573,70.7462413 C214.749573,77.3565449 213.896631,83.1992004 212.190746,88.2848694 C210.490192,93.3652076 208.229895,97.6565741 205.409854,101.1643 C202.589813,104.672025 199.359294,107.342801 195.712965,109.171296 C192.215254,110.965499 188.342513,111.906283 184.411478,111.916705 C178.387572,111.916705 172.939403,109.37387 168.077631,104.293532 L168.951897,115.877556 L168.951897,115.882887 Z M168.951897,86.9094998 C170.412561,88.3328474 171.915872,89.2977385 173.472492,89.8041731 C175.029112,90.3159385 176.63371,90.5664904 178.286285,90.5664904 C181.202282,90.5664904 183.729124,89.1431427 185.866811,86.3017784 C188.009829,83.4550831 189.076007,78.369414 189.076007,71.0554329 C189.076007,64.74899 188.223064,60.2283953 186.527841,57.482987 C184.821957,54.7375786 182.273791,53.3675399 178.867352,53.3675399 C176.926909,53.3675399 175.1997,53.7726875 173.696389,54.5829828 C172.182416,55.398609 170.604473,56.8219566 168.951897,58.8530257 L168.951897,86.9094998 L168.951897,86.9094998 Z M218.134688,3.96085128 L243.221857,3.96085128 L243.221857,84.1640915 C243.221857,86.8082129 243.680313,88.5887302 244.607888,89.5003124 C245.530132,90.4172254 246.431052,90.875682 247.305318,90.875682 L248.542085,90.875682 C249.01735,90.8452334 249.484969,90.7409184 249.928116,90.5664904 L252.844113,109.779018 C251.226721,110.467693 249.539399,110.978895 247.811753,111.303652 C245.431851,111.745553 243.014066,111.950904 240.593728,111.916705 C236.318354,111.916705 232.746658,111.223689 229.878639,109.858981 C227.087149,108.552084 224.694845,106.524146 222.948482,103.984341 C221.19995,101.446837 219.963184,98.4188913 219.227521,94.9164966 C218.466603,91.075917 218.100421,87.167592 218.134688,83.2525093 L218.134688,3.96618217 L218.134688,3.96085128 Z M247.486569,71.9670151 C247.486569,65.6659031 248.483445,60.0258215 250.471867,55.0414393 C252.470951,50.0623881 255.141727,45.8723085 258.494857,42.4605389 C261.78446,39.1003434 265.731515,36.4544551 270.089542,34.6881013 C278.758066,31.1370972 288.475285,31.1370972 297.143809,34.6881013 C301.472492,36.4686185 305.310733,39.0594311 308.663862,42.4658698 C312.022323,45.8669776 314.714423,50.0623881 316.756153,55.0467702 C318.797884,60.0258215 319.821415,65.6659031 319.821415,71.9670151 C319.821415,78.2681271 318.797884,83.9082087 316.756153,88.8925909 C314.714423,93.8716422 312.016992,98.0617217 308.663862,101.473491 C305.39269,104.821154 301.472672,107.465941 297.143809,109.245929 C288.475285,112.796933 278.758066,112.796933 270.089542,109.245929 C265.731051,107.478002 261.783959,104.830275 258.494857,101.46816 C255.141727,98.0670526 252.470951,93.8716422 250.477198,88.88726 C248.483445,83.9082087 247.486569,78.2681271 247.486569,71.9670151 L247.486569,71.9670151 Z M273.154804,71.9670151 C273.154804,77.7616926 273.954438,82.3622506 275.559035,85.7633585 C277.163633,89.1751281 279.861064,90.875682 283.651326,90.875682 C287.44692,90.875682 290.144351,89.1697972 291.748948,85.7633585 C293.348215,82.3622506 294.15318,77.7616926 294.15318,71.9670151 C294.15318,66.1723377 293.353546,61.5717796 291.748948,58.1706718 C290.144351,54.7589022 287.44692,53.0583483 283.651326,53.0583483 C279.866395,53.0583483 277.163633,54.7642331 275.559035,58.1706718 C273.959768,61.5717796 273.154804,66.1723377 273.154804,71.9670151 Z M325.253592,117.402191 C325.935946,117.604764 326.692932,117.812669 327.513889,118.015243 C328.340177,118.217817 329.145142,118.319104 329.923452,118.319104 C333.32456,118.319104 335.878056,117.631419 337.57861,116.26138 C339.279164,114.886011 340.51593,113.030861 341.29424,110.695931 L342.173837,107.33747 L314.463871,33.8511516 L339.545708,33.8511516 L348.29903,63.1230686 C349.365208,66.6787722 350.287452,70.2131523 351.071092,73.7208779 C351.844071,77.2286036 352.670359,80.9122486 353.544625,84.7771438 L354.131023,84.7771438 C354.909333,81.1148224 355.660989,77.5058098 356.391321,73.9501062 C357.121653,70.3890717 357.921286,66.78539 358.795552,63.1283995 L366.08821,33.8511516 L390.007913,33.8511516 L365.507143,108.867436 C363.824223,113.460551 361.85138,117.942183 359.600516,122.285286 C357.606764,126.043563 355.298488,129.146141 352.670359,131.582358 C350.092944,133.994651 347.038379,135.839738 343.703802,136.998542 C340.345342,138.166007 336.437799,138.752405 331.965183,138.752405 C329.43301,138.752405 327.369955,138.624464 325.765358,138.368581 C324.11187,138.099746 322.478614,137.718594 320.876931,137.227771 L325.253592,117.402191 L325.253592,117.402191 Z M395.445421,0 L399.816751,0 L399.816751,49.097497 C403.272575,45.4206331 407.111268,42.1234315 411.267502,39.2620049 C415.105743,36.6711924 419.455749,35.3704552 424.317521,35.3704552 C431.514223,35.3704552 436.813127,37.609429 440.214235,42.0873766 C443.620674,46.5546624 445.321228,53.5701137 445.321228,63.1230686 L445.321228,110.08821 L440.944567,110.08821 L440.944567,63.7361209 C440.944567,55.6011828 439.633168,49.5559535 437.005039,45.5897714 C434.382241,41.6235892 430.053559,39.6404981 424.029653,39.6404981 C419.652992,39.6404981 415.644163,40.8666028 411.997834,43.3028195 C408.351506,45.7443672 404.289367,49.4013577 399.816751,54.284453 L399.816751,110.082879 L395.445421,110.082879 L395.445421,0 L395.445421,0 Z M455.130065,73.7955104 C455.130065,67.899546 455.956353,62.5899796 457.608929,57.8614802 C459.261505,53.1383116 461.521803,49.097497 464.389821,45.7443672 C467.11094,42.5021737 470.490977,39.8762852 474.305277,38.0412311 C478.06455,36.2596654 482.177123,35.3485947 486.337095,35.3751949 C490.612469,35.3751949 494.333431,36.1381034 497.494648,37.6627379 C500.983424,39.3971749 504.281578,41.4911273 507.335471,43.910541 L507.62867,43.910541 L508.215068,37.2042814 L512,37.2042814 L512,143.93403 L507.62867,143.93403 L507.62867,114.965974 L507.921869,100.32735 C504.662949,103.414937 501.066836,106.12588 497.201449,108.408979 C493.261922,110.743909 488.863937,111.916705 484.002166,111.916705 C475.152888,111.916705 468.132106,108.664862 462.929157,102.161176 C457.726209,95.6521594 455.130065,86.2004914 455.130065,73.8008413 L455.130065,73.7955104 Z M459.794594,73.7955104 C459.794594,78.8811795 460.327683,83.4764066 461.399192,87.5971846 C462.46537,91.7126317 464.048644,95.2736662 466.143684,98.2696264 C468.228062,101.265587 470.781558,103.579193 473.793511,105.205114 C476.810795,106.831036 480.307859,107.646662 484.295365,107.646662 C488.378826,107.646662 492.2917,106.553829 496.033984,104.368165 C499.776269,102.1825 503.641164,99.0052892 507.62867,94.8365333 L507.62867,49.7052184 C503.641164,46.0482279 499.973512,43.4520845 496.620382,41.9274499 C493.301445,40.4101821 489.693189,39.6299696 486.043897,39.640393 C482.34959,39.640393 478.900504,40.5307567 475.691308,42.311274 C472.431618,44.1337746 469.596838,46.6287443 467.37512,49.630586 C464.939134,52.9334473 463.067501,56.6172689 461.836325,60.532256 C460.457001,64.817164 459.767819,69.294149 459.794594,73.7955104 L459.794594,73.7955104 Z" fill="#000000"></path>
    </g>
</svg>

<svg xmlns="http://www.w3.org/2000/svg" viewBox="0 0 512 143.934">
  <path d="M0 71.967c0-6.2.853-11.792 2.553-16.771 1.701-4.984 3.935-9.174 6.707-12.58a29.57 29.57 0 0 1 9.553-7.853c3.598-1.829 7.244-2.746 10.939-2.746 3.987 0 7.239.693 9.771 2.058 2.527 1.375 4.905 3.23 7.144 5.565l-.875-10.976V3.966h25.082v106.117H50.457l-1.749-7.01h-.586a31.229 31.229 0 0 1-8.673 6.402c-3.258 1.626-6.488 2.442-9.703 2.442-4.563 0-8.673-.917-12.314-2.746a26.233 26.233 0 0 1-9.34-7.927c-2.575-3.46-4.568-7.65-5.976-12.58C.704 83.731 0 78.166 0 71.966zm25.668-.304c0 6.909.95 11.792 2.842 14.639 1.897 2.841 4.547 4.264 7.948 4.264 1.946 0 3.646-.378 5.107-1.14 1.455-.763 2.868-2.213 4.227-4.345V57.025a11.424 11.424 0 0 0-4.813-2.895 18.264 18.264 0 0 0-5.102-.762c-2.628 0-4.984 1.37-7.074 4.115s-3.135 7.469-3.135 14.18zm48.016.304c0-6.2.996-11.765 2.99-16.696 1.994-4.931 4.617-9.121 7.874-12.581a33.904 33.904 0 0 1 11.157-7.927 32.055 32.055 0 0 1 12.981-2.746c5.347 0 10.012.965 14 2.9a27.758 27.758 0 0 1 9.915 7.927c2.628 3.359 4.595 7.266 5.906 11.739 1.312 4.478 1.973 9.254 1.973 14.335 0 2.34-.123 4.424-.368 6.253-.24 1.828-.464 3.198-.656 4.115H97.891c1.173 4.878 3.257 8.231 6.275 10.065 3.012 1.829 6.557 2.74 10.645 2.74 2.527 0 4.98-.378 7.362-1.14a38.382 38.382 0 0 0 7.517-3.434l8.161 15.556a43.399 43.399 0 0 1-13.199 6.631c-4.808 1.472-9.26 2.213-13.343 2.213a40.653 40.653 0 0 1-14.873-2.666 33.563 33.563 0 0 1-11.888-7.783c-3.353-3.4-6.003-7.596-7.943-12.58-1.946-4.98-2.921-10.62-2.921-16.921zm45.499-8.54c0-3.252-.704-5.997-2.111-8.231-1.413-2.239-4.014-3.358-7.805-3.358a11.195 11.195 0 0 0-7.362 2.596c-2.09 1.727-3.523 4.723-4.302 8.993zm49.769 52.456v21.036H143.87V33.85h20.417l1.749 7.01h.586a34.41 34.41 0 0 1 9.185-6.402 24.4 24.4 0 0 1 10.646-2.442c4.276 0 8.167.917 11.664 2.746a26.121 26.121 0 0 1 8.972 7.778c2.479 3.358 4.371 7.42 5.688 12.197 1.312 4.776 1.973 10.112 1.973 16.008 0 6.61-.853 12.453-2.56 17.539-1.7 5.08-3.96 9.372-6.78 12.88-2.82 3.507-6.05 6.178-9.697 8.006a24.906 24.906 0 0 1-11.302 2.746c-6.023 0-11.472-2.543-16.333-7.623l.874 11.584zm0-28.973c1.46 1.423 2.964 2.388 4.52 2.894a15.31 15.31 0 0 0 4.814.762c2.916 0 5.443-1.423 7.58-4.264 2.144-2.847 3.21-7.933 3.21-15.247 0-6.306-.853-10.827-2.548-13.572-1.706-2.745-4.254-4.115-7.66-4.115-1.941 0-3.668.405-5.172 1.215-1.514.816-3.092 2.239-4.744 4.27zm49.183-82.95h25.087v80.204c0 2.644.458 4.425 1.386 5.336.922.917 1.823 1.376 2.697 1.376h1.237c.475-.03.943-.135 1.386-.31l2.916 19.213a24.31 24.31 0 0 1-5.032 1.525c-2.38.442-4.798.647-7.218.613-4.276 0-7.847-.693-10.715-2.058a17.325 17.325 0 0 1-6.93-5.875c-1.75-2.537-2.986-5.565-3.721-9.068a57.43 57.43 0 0 1-1.093-11.663V3.966zm29.352 68.007c0-6.301.996-11.941 2.985-16.926 1.999-4.979 4.67-9.169 8.023-12.58a34.208 34.208 0 0 1 11.595-7.773 35.685 35.685 0 0 1 27.054 0c4.328 1.78 8.167 4.371 11.52 7.778 3.358 3.401 6.05 7.596 8.092 12.58 2.042 4.98 3.065 10.62 3.065 16.921s-1.023 11.941-3.065 16.926c-2.042 4.979-4.739 9.169-8.092 12.58a34.395 34.395 0 0 1-11.52 7.773 35.685 35.685 0 0 1-27.054 0 34.208 34.208 0 0 1-11.595-7.778c-3.353-3.4-6.024-7.596-8.018-12.58-1.994-4.98-2.99-10.62-2.99-16.921zm25.668 0c0 5.795.8 10.395 2.404 13.796 1.605 3.412 4.302 5.113 8.092 5.113 3.796 0 6.493-1.706 8.098-5.113 1.6-3.4 2.404-8.001 2.404-13.796s-.8-10.395-2.404-13.796c-1.605-3.412-4.302-5.113-8.098-5.113-3.785 0-6.487 1.706-8.092 5.113-1.6 3.4-2.404 8.001-2.404 13.796zm52.099 45.435c.682.203 1.439.41 2.26.613.826.203 1.631.304 2.41.304 3.4 0 5.954-.688 7.655-2.058 1.7-1.375 2.937-3.23 3.715-5.565l.88-3.359-27.71-73.486h25.082l8.753 29.272a153.174 153.174 0 0 1 2.772 10.598c.773 3.508 1.6 7.191 2.474 11.056h.586c.778-3.662 1.53-7.271 2.26-10.827.73-3.56 1.53-7.165 2.405-10.822l7.292-29.277h23.92l-24.5 75.016a115.57 115.57 0 0 1-5.907 13.418c-1.994 3.759-4.303 6.861-6.93 9.297a25.252 25.252 0 0 1-8.967 5.417c-3.359 1.167-7.266 1.753-11.739 1.753-2.532 0-4.595-.128-6.2-.383a36.89 36.89 0 0 1-4.888-1.141zM395.445 0h4.372v49.097a70.859 70.859 0 0 1 11.45-9.835c3.839-2.59 8.189-3.892 13.05-3.892 7.197 0 12.496 2.24 15.897 6.717 3.407 4.468 5.107 11.483 5.107 21.036v46.965h-4.376V63.736c0-8.135-1.312-14.18-3.94-18.146-2.623-3.966-6.951-5.95-12.975-5.95-4.377 0-8.386 1.227-12.032 3.663-3.646 2.441-7.709 6.098-12.181 10.981v55.799h-4.372V0zm59.685 73.796c0-5.896.826-11.206 2.479-15.935 1.653-4.723 3.913-8.764 6.78-12.117a29.826 29.826 0 0 1 9.916-7.703 27.682 27.682 0 0 1 12.032-2.666c4.275 0 7.996.763 11.158 2.288a55.974 55.974 0 0 1 9.84 6.248h.294l.586-6.707H512v106.73h-4.371v-28.968l.293-14.639a59.823 59.823 0 0 1-10.72 8.082c-3.94 2.335-8.338 3.508-13.2 3.508-8.85 0-15.87-3.252-21.073-9.756-5.203-6.509-7.799-15.96-7.799-28.36zm4.665 0c0 5.085.533 9.68 1.604 13.801 1.066 4.116 2.65 7.677 4.745 10.673 2.084 2.996 4.638 5.31 7.65 6.935 3.017 1.626 6.514 2.442 10.501 2.442 4.084 0 7.997-1.093 11.739-3.279 3.742-2.186 7.607-5.363 11.595-9.531V49.705c-3.988-3.657-7.655-6.253-11.009-7.778a25.265 25.265 0 0 0-10.576-2.287c-3.694 0-7.143.89-10.353 2.671a26.335 26.335 0 0 0-8.316 7.32 37.135 37.135 0 0 0-5.539 10.901 42.46 42.46 0 0 0-2.041 13.264z"/>
</svg>
